svg/white/doge.svg

<svg xmlns="http://www.w3.org/2000/svg" width="32" height="32" viewBox="0 0 32 32">
  <path fill="#FFF" fill-rule="evenodd" d="M16,32 C7.163444,32 0,24.836556 0,16 C0,7.163444 7.163444,0 16,0 C24.836556,0 32,7.163444 32,16 C32,24.836556 24.836556,32 16,32 Z M10.4823009,16.8963585 L10.4823009,24 L17.0309735,24 C18.240419,24 19.2876062,23.7908518 20.1725664,23.372549 C21.0575265,22.9542463 21.7802332,22.3828234 22.340708,21.6582633 C22.9011827,20.9337032 23.3178452,20.0859059 23.590708,19.1148459 C23.8635707,18.143786 24,17.1055144 24,16 C24,14.8944856 23.8635707,13.856214 23.590708,12.8851541 C23.3178452,11.9140941 22.9011827,11.0662968 22.340708,10.3417367 C21.7802332,9.61717658 21.0575265,9.04575373 20.1725664,8.62745098 C19.2876062,8.20914824 18.240419,8 17.0309735,8 L10.4823009,8 L10.4823009,14.6106443 L9,14.6106443 L9,16.8963585 L10.4823009,16.8963585 Z M13.2477876,14.6106443 L13.2477876,10.2857143 L15.9690265,10.2857143 C17.0457281,10.2857143 17.9269877,10.4313711 18.6128319,10.7226891 C19.298676,11.0140071 19.8370187,11.4173644 20.2278761,11.9327731 C20.6187335,12.4481818 20.8842176,13.0532178 21.0243363,13.7478992 C21.164455,14.4425805 21.2345133,15.1932733 21.2345133,16 C21.2345133,16.8067267 21.164455,17.5574195 21.0243363,18.2521008 C20.8842176,18.9467822 20.6187335,19.5518182 20.2278761,20.0672269 C19.8370187,20.5826356 19.298676,20.9859929 18.6128319,21.2773109 C17.9269877,21.5686289 17.0457281,21.7142857 15.9690265,21.7142857 L13.2477876,21.7142857 L13.2477876,16.8963585 L17.5619469,16.8963585 L17.5619469,14.6106443 L13.2477876,14.6106443 Z"/>
</svg>

<svg xmlns="http://www.w3.org/2000/svg" width="32" height="32"><path fill="#FFF" fill-rule="evenodd" d="M16 32C7.163 32 0 24.837 0 16S7.163 0 16 0s16 7.163 16 16-7.163 16-16 16zm-5.518-15.104V24h6.549c1.21 0 2.257-.21 3.142-.627.885-.419 1.607-.99 2.168-1.715.56-.724.977-1.572 1.25-2.543.273-.971.409-2.01.409-3.115a11.47 11.47 0 0 0-.41-3.115c-.272-.97-.689-1.819-1.25-2.543-.56-.725-1.282-1.296-2.167-1.715C19.288 8.21 18.24 8 17.03 8h-6.549v6.61H9v2.286h1.482zm2.766-2.285v-4.325h2.721c1.077 0 1.958.145 2.644.437.686.291 1.224.694 1.615 1.21.39.515.656 1.12.796 1.815.14.695.21 1.445.21 2.252 0 .807-.07 1.557-.21 2.252-.14.695-.405 1.3-.796 1.815-.391.516-.93.919-1.615 1.21-.686.292-1.567.437-2.644.437h-2.721v-4.818h4.314v-2.285h-4.314z"/></svg>
